X:3103
T:Johnnie Jigamy
O:england
S:Greig-Duncan Collection Vol.7
M:4/4
L:1/8
K:Amix
A<AA>B A>B e2|d>eg>B A<G E2|G<GG>A G>A B2|D>EG>A B<A A2:|]
A<aa>g b>a a2|g>ab>g a>g e2|g>ag>e d>e g2|G<GG>A B>A A2:|]


